X: 1
T: Rachael Rae
C: John Lowe (about 1815)
R: reel
B: RSCDS 3-8
B: BSFC Session Tune Book 2016 p.46
S: Barbara McOwen
Z: 2019 by John Chambers <jc:trillian.mit.edu> (using 1997 24-bar transcription)
M: C|
L: 1/8
K: D
|:\
"D"D2FA d2Ac | d2fd "A7"e2cA |\
"D"d2Ad "G"BAGF | "A7"EFGA "D"FDD2 :|\
"D"d2df a2fd | "Em"g2bg "A7"e2cA |
"D"d2df a2fd | "A7"egfe "D"fdd2 ||\
"D"defg a2fd | "Em"g2bg "A7"e2cA |\
"D"d2Ad "G"BAGF | "A7"EFGA "D"FDD2 |]


